komodo/Komodo-Biru/emblems/scalable/emblem-default.svg

<?xml version="1.0" encoding="UTF-8" standalone="no"?>
<!-- Created with Inkscape (http://www.inkscape.org/) -->

<svg
   xmlns:dc="http://purl.org/dc/elements/1.1/"
   xmlns:cc="http://creativecommons.org/ns#"
   xmlns:rdf="http://www.w3.org/1999/02/22-rdf-syntax-ns#"
   xmlns:svg="http://www.w3.org/2000/svg"
   xmlns="http://www.w3.org/2000/svg"
   xmlns:xlink="http://www.w3.org/1999/xlink"
   xmlns:sodipodi="http://sodipodi.sourceforge.net/DTD/sodipodi-0.dtd"
   xmlns:inkscape="http://www.inkscape.org/namespaces/inkscape"
   width="96"
   height="96"
   id="svg2982"
   version="1.1"
   inkscape:version="0.48.1 r9760"
   sodipodi:docname="templat-ikon-96x96.svg">
  <defs
     id="defs2984">
    <filter
       color-interpolation-filters="sRGB"
       inkscape:collect="always"
       id="filter6279-2">
      <feGaussianBlur
         inkscape:collect="always"
         stdDeviation="0.8"
         id="feGaussianBlur6281-1" />
    </filter>
    <linearGradient
       inkscape:collect="always"
       xlink:href="#ButtonColor-6"
       id="linearGradient9181"
       gradientUnits="userSpaceOnUse"
       gradientTransform="translate(0,-7.8515622e-6)"
       x1="48"
       y1="1052.3622"
       x2="48"
       y2="902.36218" />
    <linearGradient
       x1="10.31979"
       y1="21"
       x2="10.31979"
       y2="0.99929649"
       id="ButtonColor-6"
       gradientUnits="userSpaceOnUse">
      <stop
         id="stop3189-4"
         style="stop-color:#c8c8c8;stop-opacity:1"
         offset="0" />
      <stop
         id="stop3191-0-2"
         style="stop-color:#e6e6e6;stop-opacity:1"
         offset="1" />
    </linearGradient>
    <radialGradient
       inkscape:collect="always"
       xlink:href="#linearGradient3625"
       id="radialGradient3048"
       gradientUnits="userSpaceOnUse"
       gradientTransform="matrix(0.900984,0,0,1.1428576,-9.6629932,-57.37237)"
       cx="64"
       cy="120.20078"
       fx="64"
       fy="120.20078"
       r="56" />
    <linearGradient
       id="linearGradient3625">
      <stop
         id="stop3627"
         style="stop-color:#787878;stop-opacity:1"
         offset="0" />
      <stop
         id="stop3629"
         style="stop-color:#323232;stop-opacity:1"
         offset="1" />
    </linearGradient>
  </defs>
  <sodipodi:namedview
     id="base"
     pagecolor="#ffffff"
     bordercolor="#666666"
     borderopacity="1.0"
     inkscape:pageopacity="0.0"
     inkscape:pageshadow="2"
     inkscape:zoom="3.959798"
     inkscape:cx="36.39115"
     inkscape:cy="42.877139"
     inkscape:document-units="px"
     inkscape:current-layer="layer1"
     showgrid="false"
     inkscape:window-width="1280"
     inkscape:window-height="725"
     inkscape:window-x="0"
     inkscape:window-y="25"
     inkscape:window-maximized="1" />
  <metadata
     id="metadata2987">
    <rdf:RDF>
      <cc:Work
         rdf:about="">
        <dc:format>image/svg+xml</dc:format>
        <dc:type
           rdf:resource="http://purl.org/dc/dcmitype/StillImage" />
        <dc:title></dc:title>
      </cc:Work>
    </rdf:RDF>
  </metadata>
  <g
     inkscape:label="Layer 1"
     inkscape:groupmode="layer"
     id="layer1"
     transform="translate(0,-956.36218)">
    <g
       id="g6841">
      <rect
         transform="translate(0,-7.8515622e-6)"
         y="964.36218"
         x="8"
         height="80"
         width="80"
         id="rect9283"
         style="fill:#000000;fill-opacity:1;stroke:none;filter:url(#filter6279-2)"
         rx="5"
         ry="5" />
      <rect
         ry="5"
         rx="5"
         style="fill:url(#linearGradient9181);fill-opacity:1;stroke:none"
         id="rect9285"
         width="80"
         height="80"
         x="8"
         y="964.36218" />
      <g
         id="g3079"
         transform="matrix(0.84375,0,0,0.84375,7.5,963.86218)">
        <path
           style="fill:url(#radialGradient3048);fill-opacity:1;stroke:none"
           id="path2505"
           inkscape:connector-curvature="0"
           d="M 48,16 C 30.335998,16 16,30.335995 16,48 16,65.664004 30.335998,80 48,80 65.664,80 80.000004,65.664008 80,48 80,30.335995 65.664,16 48,16 z m 12.125,16.125 7.75,8.375 -24,27.25 -15.75,-15.625 7.75,-8.375 8,7.25 16.25,-18.875 z" />
        <path
           style="opacity:0.2;fill:#000000;fill-opacity:1;stroke:none"
           id="path3119"
           inkscape:connector-curvature="0"
           d="M 48,16 C 30.335998,16 16,30.335995 16,48 16,65.664004 30.335998,80 48,80 65.664,80 80.000004,65.664008 80,48 80,30.335995 65.664,16 48,16 z m 0,1.03125 C 65.108769,17.03125 78.96875,30.891226 78.96875,48 78.968754,65.108777 65.108769,78.96875 48,78.96875 30.891229,78.96875 17.03125,65.108773 17.03125,48 17.03125,30.891226 30.891229,17.03125 48,17.03125 z m 11.9375,14.0625 a 1.0262885,1.0262885 0 0 0 -0.59375,0.375 L 43.78125,49.53125 36.5625,43 a 1.0262885,1.0262885 0 0 0 -1.4375,0.0625 l -7.75,8.375 a 1.0262885,1.0262885 0 0 0 0.03125,1.40625 l 15.75,15.625 a 1.0262885,1.0262885 0 0 0 1.5,-0.03125 l 24,-27.25 A 1.0262885,1.0262885 0 0 0 68.625,39.8125 l -7.75,-8.375 a 1.0262885,1.0262885 0 0 0 -0.8125,-0.34375 1.0262885,1.0262885 0 0 0 -0.125,0 z m 0.1875,1.03125 7.75,8.375 -24,27.25 -15.75,-15.625 7.75,-8.375 8,7.25 16.25,-18.875 z" />
      </g>
    </g>
  </g>
</svg>

<?xml version="1.0" encoding="UTF-8" standalone="no"?>
<!-- Created with Inkscape (http://www.inkscape.org/) -->
<svg id="svg2982" xmlns:rdf="http://www.w3.org/1999/02/22-rdf-syntax-ns#" xmlns="http://www.w3.org/2000/svg" height="96" width="96" version="1.1" xmlns:cc="http://creativecommons.org/ns#" xmlns:xlink="http://www.w3.org/1999/xlink" xmlns:dc="http://purl.org/dc/elements/1.1/">
 <defs id="defs2984">
  <filter id="filter6279-2" color-interpolation-filters="sRGB">
   <feGaussianBlur id="feGaussianBlur6281-1" stdDeviation="0.8"/>
  </filter>
  <linearGradient id="linearGradient9181" y2="902.36" gradientUnits="userSpaceOnUse" x2="48" gradientTransform="translate(0 -.0000078516)" y1="1052.4" x1="48">
   <stop id="stop3189-4" style="stop-color:#c8c8c8" offset="0"/>
   <stop id="stop3191-0-2" style="stop-color:#e6e6e6" offset="1"/>
  </linearGradient>
  <radialGradient id="radialGradient3048" gradientUnits="userSpaceOnUse" cy="120.2" cx="64" gradientTransform="matrix(.90098 0 0 1.1429 -9.663 -57.372)" r="56">
   <stop id="stop3627" style="stop-color:#787878" offset="0"/>
   <stop id="stop3629" style="stop-color:#323232" offset="1"/>
  </radialGradient>
 </defs>
 <metadata id="metadata2987">
  <rdf:RDF>
   <cc:Work rdf:about="">
    <dc:format>image/svg+xml</dc:format>
    <dc:type rdf:resource="http://purl.org/dc/dcmitype/StillImage"/>
    <dc:title/>
   </cc:Work>
  </rdf:RDF>
 </metadata>
 <g id="layer1" transform="translate(0 -956.36)">
  <g id="g6841">
   <rect id="rect9283" ry="5" style="filter:url(#filter6279-2)" rx="5" transform="translate(0 -.0000078516)" height="80" width="80" y="964.36" x="8"/>
   <rect id="rect9285" style="fill:url(#linearGradient9181)" rx="5" ry="5" height="80" width="80" y="964.36" x="8"/>
   <g id="g3079" transform="matrix(.84375 0 0 .84375 7.5 963.86)">
    <path id="path2505" d="m48 16c-17.664 0-32 14.336-32 32s14.336 32 32 32 32-14.336 32-32-14.336-32-32-32zm12.125 16.125 7.75 8.375-24 27.25-15.75-15.625 7.75-8.375 8 7.25 16.25-18.875z" style="fill:url(#radialGradient3048)"/>
    <path id="path3119" d="m48 16c-17.664 0-32 14.336-32 32s14.336 32 32 32 32-14.336 32-32-14.336-32-32-32zm0 1.0312c17.109 0 30.969 13.86 30.969 30.969s-13.86 30.969-30.969 30.969-30.969-13.86-30.969-30.969 13.86-30.969 30.969-30.969zm11.938 14.062a1.0263 1.0263 0 0 0 -0.59375 0.375l-15.563 18.063-7.219-6.531a1.0263 1.0263 0 0 0 -1.4375 0.0625l-7.75 8.375a1.0263 1.0263 0 0 0 0.03125 1.4062l15.75 15.625a1.0263 1.0263 0 0 0 1.5 -0.03125l24-27.25a1.0263 1.0263 0 0 0 -0.03 -1.375l-7.75-8.375a1.0263 1.0263 0 0 0 -0.8125 -0.34375 1.0263 1.0263 0 0 0 -0.125 0zm0.1875 1.0312 7.75 8.375-24 27.25-15.75-15.625 7.75-8.375 8 7.25 16.25-18.875z" style="opacity:.2"/>
   </g>
  </g>
 </g>
</svg>
